img/svg/check-ico.svg

<svg width="20" height="16" viewBox="0 0 20 16" fill="none" xmlns="http://www.w3.org/2000/svg">
<path d="M-8.40897e-07 7.79079C-8.40897e-07 7.40715 0.141207 7.02382 0.423341 6.73201C0.985368 6.151 1.8937 6.15392 2.45209 6.73871L8.02483 12.5749C8.29576 12.8586 8.6555 13.0148 9.03738 13.0148C9.41926 13.0148 9.77872 12.8586 10.0496 12.5749L17.548 0.440532C18.1064 -0.144259 19.0144 -0.147174 19.5765 0.433827C20.1385 1.01483 20.1416 1.95994 19.5832 2.54473L12.0848 14.6788C11.2715 15.5309 10.1892 16 9.03738 16C7.88559 16 6.80328 15.5309 5.98994 14.6788L0.416896 8.84288C0.138964 8.55165 -8.40897e-07 8.17123 -8.40897e-07 7.79079Z" fill="#4C51CC"/>
</svg>

<svg width="20" height="16" fill="none" xmlns="http://www.w3.org/2000/svg"><path d="M0 7.79c0-.383.141-.766.423-1.058a1.395 1.395 0 012.03.007l5.572 5.836c.27.284.63.44 1.012.44a1.39 1.39 0 001.013-.44L17.548.44a1.395 1.395 0 012.029-.007c.561.58.565 1.526.006 2.11L12.085 14.68A4.184 4.184 0 019.037 16a4.185 4.185 0 01-3.047-1.321L.417 8.843A1.52 1.52 0 010 7.79z" fill="#4C51CC"/></svg>
